app/themes/uggwc_pro/assets/images/thema/Kommunikation.svg

<svg width="16" height="16" viewBox="0 0 16 16" fill="none" xmlns="http://www.w3.org/2000/svg">
<path d="M2.4 7.14286C3.2825 7.14286 4 6.37411 4 5.42857C4 4.48304 3.2825 3.71429 2.4 3.71429C1.5175 3.71429 0.8 4.48304 0.8 5.42857C0.8 6.37411 1.5175 7.14286 2.4 7.14286ZM13.6 7.14286C14.4825 7.14286 15.2 6.37411 15.2 5.42857C15.2 4.48304 14.4825 3.71429 13.6 3.71429C12.7175 3.71429 12 4.48304 12 5.42857C12 6.37411 12.7175 7.14286 13.6 7.14286ZM14.4 8H12.8C12.36 8 11.9625 8.19018 11.6725 8.49821C12.68 9.09018 13.395 10.1589 13.55 11.4286H15.2C15.6425 11.4286 16 11.0455 16 10.5714V9.71429C16 8.76875 15.2825 8 14.4 8ZM8 8C9.5475 8 10.8 6.65804 10.8 5C10.8 3.34196 9.5475 2 8 2C6.4525 2 5.2 3.34196 5.2 5C5.2 6.65804 6.4525 8 8 8ZM9.92 8.85714H9.7125C9.1925 9.125 8.615 9.28571 8 9.28571C7.385 9.28571 6.81 9.125 6.2875 8.85714H6.08C4.49 8.85714 3.2 10.2393 3.2 11.9429V12.7143C3.2 13.4241 3.7375 14 4.4 14H11.6C12.2625 14 12.8 13.4241 12.8 12.7143V11.9429C12.8 10.2393 11.51 8.85714 9.92 8.85714ZM4.3275 8.49821C4.0375 8.19018 3.64 8 3.2 8H1.6C0.7175 8 0 8.76875 0 9.71429V10.5714C0 11.0455 0.3575 11.4286 0.8 11.4286H2.4475C2.605 10.1589 3.32 9.09018 4.3275 8.49821Z" fill="#6E6CFF"/>
</svg>

<svg width="16" height="16" fill="none" xmlns="http://www.w3.org/2000/svg"><path d="M2.4 7.143c.883 0 1.6-.769 1.6-1.714 0-.946-.717-1.715-1.6-1.715-.882 0-1.6.769-1.6 1.715 0 .945.718 1.714 1.6 1.714zm11.2 0c.883 0 1.6-.769 1.6-1.714 0-.946-.717-1.715-1.6-1.715-.883 0-1.6.769-1.6 1.715 0 .945.717 1.714 1.6 1.714zm.8.857h-1.6c-.44 0-.838.19-1.128.498 1.008.592 1.723 1.66 1.878 2.93h1.65c.443 0 .8-.383.8-.857v-.857C16 8.77 15.283 8 14.4 8zM8 8c1.547 0 2.8-1.342 2.8-3S9.547 2 8 2C6.452 2 5.2 3.342 5.2 5S6.452 8 8 8zm1.92.857h-.207A3.724 3.724 0 0 1 8 9.286c-.615 0-1.19-.161-1.713-.429H6.08c-1.59 0-2.88 1.382-2.88 3.086v.771c0 .71.537 1.286 1.2 1.286h7.2c.662 0 1.2-.576 1.2-1.286v-.771c0-1.704-1.29-3.086-2.88-3.086zm-5.593-.359A1.543 1.543 0 0 0 3.2 8H1.6C.717 8 0 8.769 0 9.714v.857c0 .475.357.858.8.858h1.647c.158-1.27.873-2.339 1.88-2.93z" fill="#6E6CFF"/></svg>
